assets/img/icons/duotone-icons/Communication/Readed-mail.svg

<?xml version="1.0" encoding="UTF-8"?>
<svg width="24px" height="24px" viewBox="0 0 24 24" version="1.1" xmlns="http://www.w3.org/2000/svg" xmlns:xlink="http://www.w3.org/1999/xlink">
    <!-- Generator: Sketch 52.2 (67145) - http://www.bohemiancoding.com/sketch -->
    <title>Stockholm-icons / Communication / Readed-mail</title>
    <desc>Created with Sketch.</desc>
    <g id="Stockholm-icons-/-Communication-/-Readed-mail" stroke="none" stroke-width="1" fill="none" fill-rule="evenodd">
        <rect id="bound" x="0" y="0" width="24" height="24"></rect>
        <path d="M4.875,20.75 C4.63541667,20.75 4.39583333,20.6541667 4.20416667,20.4625 L2.2875,18.5458333 C1.90416667,18.1625 1.90416667,17.5875 2.2875,17.2041667 C2.67083333,16.8208333 3.29375,16.8208333 3.62916667,17.2041667 L4.875,18.45 L8.0375,15.2875 C8.42083333,14.9041667 8.99583333,14.9041667 9.37916667,15.2875 C9.7625,15.6708333 9.7625,16.2458333 9.37916667,16.6291667 L5.54583333,20.4625 C5.35416667,20.6541667 5.11458333,20.75 4.875,20.75 Z" id="check" fill="#335EEA" opacity="0.3"></path>
        <path d="M12.9835977,18 C12.7263047,14.0909841 9.47412135,11 5.5,11 C4.98630124,11 4.48466491,11.0516454 4,11.1500272 L4,7 C4,5.8954305 4.8954305,5 6,5 L20,5 C21.1045695,5 22,5.8954305 22,7 L22,16 C22,17.1045695 21.1045695,18 20,18 L12.9835977,18 Z M19.1444251,6.83964668 L13,10.1481833 L6.85557487,6.83964668 C6.4908718,6.6432681 6.03602525,6.77972206 5.83964668,7.14442513 C5.6432681,7.5091282 5.77972206,7.96397475 6.14442513,8.16035332 L12.6444251,11.6603533 C12.8664074,11.7798822 13.1335926,11.7798822 13.3555749,11.6603533 L19.8555749,8.16035332 C20.2202779,7.96397475 20.3567319,7.5091282 20.1603533,7.14442513 C19.9639747,6.77972206 19.5091282,6.6432681 19.1444251,6.83964668 Z" id="Combined-Shape" fill="#335EEA"></path>
    </g>
</svg>

<svg width="24" height="24" viewBox="0 0 24 24" xmlns="http://www.w3.org/2000/svg"><g fill="none" fill-rule="evenodd"><path d="M0 0h24v24H0z"/><path d="M4.875 20.75a.946.946 0 01-.67-.288l-1.917-1.916a.926.926 0 010-1.342c.383-.383 1.006-.383 1.341 0l1.246 1.246 3.162-3.162a.926.926 0 011.342 0 .926.926 0 010 1.341l-3.833 3.833a.946.946 0 01-.671.288z" fill="#335EEA" opacity=".3"/><path d="M12.984 18A7.5 7.5 0 004 11.15V7a2 2 0 012-2h14a2 2 0 012 2v9a2 2 0 01-2 2h-7.016zm6.16-11.16L13 10.148 6.856 6.84a.75.75 0 10-.712 1.32l6.5 3.5c.222.12.49.12.712 0l6.5-3.5a.75.75 0 00-.712-1.32z" fill="#335EEA"/></g></svg>
